svgs/themed_icon_calendar_20.svg

<svg height="192" width="192" xmlns="http://www.w3.org/2000/svg"><path d="M146 30H46c-8.837 0-16 7.163-16 16v100c0 8.837 7.163 16 16 16h75.373a16 16 0 0 0 11.313-4.686l24.628-24.628A16 16 0 0 0 162 121.373V46c0-8.837-7.163-16-16-16Z" stroke="#000" stroke-width="12" fill="none"/><path d="M63.484 120c-1.824 0-3.144-.408-3.96-1.224-.816-.864-1.224-2.112-1.224-3.744 0-1.056.264-2.04.792-2.952.528-.912 1.248-1.848 2.16-2.808l13.536-14.256c2.016-2.16 3.456-4.08 4.32-5.76.912-1.68 1.368-3.36 1.368-5.04 0-4.32-2.664-6.48-7.992-6.48-1.392 0-2.832.192-4.32.576-1.44.384-2.952 1.056-4.536 2.016-1.296.768-2.496.936-3.6.504-1.056-.432-1.848-1.176-2.376-2.232a5.23 5.23 0 0 1-.36-3.312c.288-1.2 1.08-2.184 2.376-2.952a24.478 24.478 0 0 1 6.912-2.88c2.496-.672 4.968-1.008 7.416-1.008 5.664 0 9.984 1.272 12.96 3.816 3.024 2.496 4.536 6.072 4.536 10.728 0 3.072-.72 6.024-2.16 8.856-1.392 2.784-3.696 5.808-6.912 9.072l-9.792 9.936h16.704c3.12 0 4.68 1.512 4.68 4.536 0 3.072-1.56 4.608-4.68 4.608H63.484Zm53.396.792c-6.144 0-10.848-2.28-14.112-6.84-3.216-4.56-4.824-11.064-4.824-19.512s1.608-14.88 4.824-19.296c3.264-4.464 7.968-6.696 14.112-6.696s10.824 2.232 14.04 6.696c3.264 4.416 4.896 10.848 4.896 19.296 0 8.448-1.632 14.952-4.896 19.512-3.216 4.56-7.896 6.84-14.04 6.84Zm0-9.072c2.784 0 4.848-1.368 6.192-4.104 1.344-2.784 2.016-7.176 2.016-13.176s-.672-10.32-2.016-12.96c-1.344-2.64-3.408-3.96-6.192-3.96-2.784 0-4.848 1.32-6.192 3.96-1.344 2.64-2.016 6.96-2.016 12.96 0 6 .672 10.392 2.016 13.176 1.344 2.736 3.408 4.104 6.192 4.104Z"/></svg>

<?xml version="1.0" encoding="UTF-8" standalone="no"?><svg xmlns:android="http://schemas.android.com/apk/res/android" height="192" width="192" xmlns="http://www.w3.org/2000/svg">
  <path d="M146,30H46C37.163,30 30,37.163 30,46V146C30,154.837 37.163,162 46,162H121.373C125.616,162 129.686,160.314 132.686,157.314L157.314,132.686C160.314,129.686 162,125.616 162,121.373V46C162,37.163 154.837,30 146,30Z" fill="#000000" fill-opacity="0.0" stroke="#000000" stroke-width="12"/>
  <path d="M63.484,120C61.66,120 60.34,119.592 59.524,118.776C58.708,117.912 58.3,116.664 58.3,115.032C58.3,113.976 58.564,112.992 59.092,112.08C59.62,111.168 60.34,110.232 61.252,109.272L74.788,95.016C76.804,92.856 78.244,90.936 79.108,89.256C80.02,87.576 80.476,85.896 80.476,84.216C80.476,79.896 77.812,77.736 72.484,77.736C71.092,77.736 69.652,77.928 68.164,78.312C66.724,78.696 65.212,79.368 63.628,80.328C62.332,81.096 61.132,81.264 60.028,80.832C58.972,80.4 58.18,79.656 57.652,78.6C57.172,77.544 57.052,76.44 57.292,75.288C57.58,74.088 58.372,73.104 59.668,72.336C61.78,71.04 64.084,70.08 66.58,69.456C69.076,68.784 71.548,68.448 73.996,68.448C79.66,68.448 83.98,69.72 86.956,72.264C89.98,74.76 91.492,78.336 91.492,82.992C91.492,86.064 90.772,89.016 89.332,91.848C87.94,94.632 85.636,97.656 82.42,100.92L72.628,110.856H89.332C92.452,110.856 94.012,112.368 94.012,115.392C94.012,118.464 92.452,120 89.332,120H63.484ZM116.88,120.792C110.736,120.792 106.032,118.512 102.768,113.952C99.552,109.392 97.944,102.888 97.944,94.44C97.944,85.992 99.552,79.56 102.768,75.144C106.032,70.68 110.736,68.448 116.88,68.448C123.024,68.448 127.704,70.68 130.92,75.144C134.184,79.56 135.816,85.992 135.816,94.44C135.816,102.888 134.184,109.392 130.92,113.952C127.704,118.512 123.024,120.792 116.88,120.792ZM116.88,111.72C119.664,111.72 121.728,110.352 123.072,107.616C124.416,104.832 125.088,100.44 125.088,94.44C125.088,88.44 124.416,84.12 123.072,81.48C121.728,78.84 119.664,77.52 116.88,77.52C114.096,77.52 112.032,78.84 110.688,81.48C109.344,84.12 108.672,88.44 108.672,94.44C108.672,100.44 109.344,104.832 110.688,107.616C112.032,110.352 114.096,111.72 116.88,111.72Z" fill="#000000"/>
</svg>
